X:1
T:Title
%%score { 1 | 2 }
L:1/8
M:4/4
K:Eb
V:1 treble nm="Grand Piano"
V:2 bass 
V:1
 z4 z2[Q:1/4=104] EF | G2 G2 G2 [FA]2 | [GB]2 [GB]4 [Ac][GB] | [FA]2 [FA]2 [GB]2 [FA]2 | %4
[M:3/4] G6 |[M:1/4] EF |[M:4/4] G2 G2 G2 [FA]2 | [GB]2 [GB]4 [Ac][GB] | [FA]2 [FA]2 [GB]2 [FA]2 | %9
[M:3/4] [EG]6 |[M:1/4] [GB][GB] |[M:4/4] [Ge]2 [Ge]2 [Bd]2 [Ac]2 | [GB]2 G4 BB | %13
 [=Ec]2 [EB]2 [EA]2 [EG]2 |[M:3/4] [FA]6 |[M:1/4] [DB][DA] |[M:4/4] [EG]2 [GB]2 E2 [Ge]2 | %17
 d2 c4 cc | B2 G2 [DA]2 [DF]2 | E6 z2 | G2 G2 G>F G>[FA] | [GB]4 [EG]4 | %22
 [DF]2 [DF]2 [DF]>[_D=E] [=DF]>[_EG] | [FA]4 [DF]2 [DF]2 | [EG]2 [EG]>[FA] [GB]2 [GB]>[GB] | %25
[M:9/8] [Ac]2 [Ad]- [Ad] [Ge]2- [Ge][G,E][A,EF] |[M:4/4] [B,EG]2 [B,EB][CFA] [B,EG]2 [A,DF]2 | %27
[M:3/4][K:bass] [E,G,E]6 |] %28
V:2
 z4 z2 [E,G,][E,A,E] | [E,B,E]2 [E,B,E]2 [E,B,E]2 [E,B,]2 | [E,E]2 [E,E]4 [E,E][E,B,] | %3
 [B,,B,]2 [B,,B,]2 [B,,B,]2 [B,,B,]2 |[M:3/4] [E,B,E]6 |[M:1/4] [E,G,][E,A,E] | %6
[M:4/4] [E,B,E]2 [E,B,E]2 [E,B,E]2 [E,B,]2 | [E,E]2 [E,E]4 [E,E][E,B,] | %8
 [B,,B,]2 [B,,B,]2 [B,,B,]2 [B,,B,]2 |[M:3/4] [E,B,]6 |[M:1/4] [E,B,][E,B,] | %11
[M:4/4] [E,B,]2 [E,B,]2 [E,E]2 [E,E]2 | [E,E]2 [E,B,E]4 [E,G,E][E,G,E] | %13
 [C,G,]2 [C,G,]2 [C,C]2 [C,C]2 |[M:3/4] [F,C]6 |[M:1/4] [B,,B,][B,,B,] | %16
[M:4/4] [E,B,]2 [E,B,]2 [G,B,]2 [E,B,]2 | [A,CA]2 [A,EA]4 [A,EA][A,EA] | %18
 [B,EG]2[K:bass] [B,E]2 [B,,B,]2 [B,,A,]2 | [E,G,]6 z2 | %20
 [E,B,E]2 [E,B,E]2 [E,B,E]>[E,B,D] [E,B,E]>[E,B,] | [E,E]4 [E,B,]4 | %22
 [B,,B,]2 [B,,B,]2 [B,,B,]>[B,,B,] [B,,B,]>[B,,B,] | [B,,B,]4 [B,,B,]2 [B,,B,]2 | %24
 [E,B,]2 [E,B,]>[E,B,] [E,E]2 [E,E]>[E,E] |[M:9/8] [A,E]2 [F,B,]- [F,B,] [E,B,]2- [E,B,]E,E, | %26
[M:4/4] E,2 G,,A,, B,,2 B,,2 |[M:3/4] E,,6 |] %28

